X: 100303
M: C|
L: 1/8
K: D
|:\
vD2 (F<A) (.d>.e) (d<B) | A<F (d>A) (F<E)E>F |\
ug |\
f>(da)>(d b)>(da)>(d | g)>(Af)>uc e2 (e<g) |\
f>(da)>(d b)>(da)>ud | (3ABc (3deg f<dd>g |
f>(da)>(d b)>(da)>(d | g)>(Af)>uA e2 (e<g) |\
(3fga (3cBA (3dcB (3AGF | (3GAB (3ABc (3cBA (3GFE "^D.C."|]


